!!!OTL: FROEHLICH UND FREI BIN ICH JUCHHEI
!!!ARE: Europa, Mitteleuropa, Deutschland
!!!SCT: B0550
!!!YEM: Copyright 1995, estate of Helmut Schaffrath.
**kern
*ICvox
*Ivox
*M3/4
*k[f#]
*G:
=1
{4.g
8b
4g
=2
2dd
4r}
=3
{4ee
4dd
4cc#
=4
2dd
4r}
=5
{4cc
4b
4a
=6
4.dd
8cc
4b}
=7
{4cc
4b
4a
=8
4.dd
8cc
4b}
=9
{4.g
8b
4g
=10
4.dd
8ee
4dd}
=11
{4ee
4dd
4cc#
=12
4.dd
8ee
4dd}
=13
{4.dd
8b
4dd
=14
2gg
4r}
==
!!!AGN: Studenten - Lied, national
!!!ONB: ESAC (Essen Associative Code) Database: BOEHME
!!!AMT: simple triple
!!!AIN: vox
!!!EED: Helmut Schaffrath
!!!EEV: 1.0
*-
